Simply-Cyan-Circles/scalable/apps/octave.svg

<svg xmlns="http://www.w3.org/2000/svg" width="48" height="48" viewBox="0 0 12.7 12.7"><path d="M6.34.07a6.29 6.29 0 0 0-6.29 6.3 6.29 6.29 0 0 0 6.3 6.28 6.29 6.29 0 0 0 6.28-6.29A6.29 6.29 0 0 0 6.34.07zm-.01.94a5.4 5.4 0 0 1 5.4 5.4 5.4 5.4 0 0 1-5.4 5.41 5.4 5.4 0 0 1-5.41-5.4A5.4 5.4 0 0 1 6.32 1zm.01 1.18a4.17 4.17 0 0 0-4.03 3.09h-.36c-.25 0-.45.2-.45.45v1.64c0 .25.2.45.45.45h.49a4.17 4.17 0 0 0 3.9 2.71 4.17 4.17 0 0 0 2.34-.71h.66c.14 0 .26-.12.26-.26v-.59a4.17 4.17 0 0 0 .92-2.6 4.17 4.17 0 0 0-.41-1.8V3.54a.28.28 0 0 0-.28-.28h-.71A4.17 4.17 0 0 0 6.34 2.2zm0 .84a3.36 3.36 0 0 1 2.19.82v.7c0 .16.12.29.28.29h.5a3.36 3.36 0 0 1 .38 1.55 3.36 3.36 0 0 1-.62 1.95h-.7a.26.26 0 0 0-.25.26v.64a3.36 3.36 0 0 1-1.79.51A3.36 3.36 0 0 1 3.3 7.82h.3c.24 0 .44-.2.44-.45V5.73c0-.25-.2-.45-.45-.45h-.42a3.36 3.36 0 0 1 3.16-2.25z" fill="#5beedc"/></svg>

<?xml version="1.0" encoding="UTF-8" standalone="no"?>
<svg
   xmlns:dc="http://purl.org/dc/elements/1.1/"
   xmlns:cc="http://creativecommons.org/ns#"
   xmlns:rdf="http://www.w3.org/1999/02/22-rdf-syntax-ns#"
   xmlns:svg="http://www.w3.org/2000/svg"
   xmlns="http://www.w3.org/2000/svg"
   xmlns:sodipodi="http://sodipodi.sourceforge.net/DTD/sodipodi-0.dtd"
   xmlns:inkscape="http://www.inkscape.org/namespaces/inkscape"
   width="48"
   height="48"
   viewBox="0 0 12.7 12.7"
   version="1.1"
   id="svg4"
   sodipodi:docname="octave.svg"
   inkscape:version="0.92.4 (5da689c313, 2019-01-14)">
  <metadata
     id="metadata10">
    <rdf:RDF>
      <cc:Work
         rdf:about="">
        <dc:format>image/svg+xml</dc:format>
        <dc:type
           rdf:resource="http://purl.org/dc/dcmitype/StillImage" />
        <dc:title></dc:title>
      </cc:Work>
    </rdf:RDF>
  </metadata>
  <defs
     id="defs8" />
  <sodipodi:namedview
     pagecolor="#ffffff"
     bordercolor="#666666"
     borderopacity="1"
     objecttolerance="10"
     gridtolerance="10"
     guidetolerance="10"
     inkscape:pageopacity="0"
     inkscape:pageshadow="2"
     inkscape:window-width="1087"
     inkscape:window-height="480"
     id="namedview6"
     showgrid="false"
     inkscape:zoom="4.9166667"
     inkscape:cx="2.1355932"
     inkscape:cy="24"
     inkscape:window-x="0"
     inkscape:window-y="25"
     inkscape:window-maximized="0"
     inkscape:current-layer="svg4" />
  <path
     d="M 6.34,0.07 A 6.29,6.29 0 0 0 0.05,6.37 6.29,6.29 0 0 0 6.35,12.65 6.29,6.29 0 0 0 12.63,6.36 6.29,6.29 0 0 0 6.34,0.07 Z M 6.33,1.01 a 5.4,5.4 0 0 1 5.4,5.4 5.4,5.4 0 0 1 -5.4,5.41 A 5.4,5.4 0 0 1 0.92,6.42 5.4,5.4 0 0 1 6.32,1 Z M 6.34,2.19 A 4.17,4.17 0 0 0 2.31,5.28 H 1.95 C 1.7,5.28 1.5,5.48 1.5,5.73 v 1.64 c 0,0.25 0.2,0.45 0.45,0.45 h 0.49 a 4.17,4.17 0 0 0 3.9,2.71 4.17,4.17 0 0 0 2.34,-0.71 H 9.34 C 9.48,9.82 9.6,9.7 9.6,9.56 V 8.97 a 4.17,4.17 0 0 0 0.92,-2.6 4.17,4.17 0 0 0 -0.41,-1.8 V 3.54 A 0.28,0.28 0 0 0 9.83,3.26 H 9.12 A 4.17,4.17 0 0 0 6.34,2.2 Z m 0,0.84 a 3.36,3.36 0 0 1 2.19,0.82 v 0.7 c 0,0.16 0.12,0.29 0.28,0.29 h 0.5 A 3.36,3.36 0 0 1 9.69,6.39 3.36,3.36 0 0 1 9.07,8.34 H 8.37 A 0.26,0.26 0 0 0 8.12,8.6 V 9.24 A 3.36,3.36 0 0 1 6.33,9.75 3.36,3.36 0 0 1 3.3,7.82 h 0.3 c 0.24,0 0.44,-0.2 0.44,-0.45 V 5.73 C 4.04,5.48 3.84,5.28 3.59,5.28 H 3.17 A 3.36,3.36 0 0 1 6.33,3.03 Z"
     id="path2"
     inkscape:connector-curvature="0"
     style="fill:#5beedc" />
</svg>
